Adwaita++/apps/16/vlc.svg

<svg height="16" width="16" xmlns="http://www.w3.org/2000/svg">
  <g fill="#444">
    <path d="m2.7773438 9.5410156c-.2247808 0-.40625.2046218-.40625.4589844l-1.52148442 5.042969c-.00000001.254362.18146922.458984.40625002.458984h13.4882816c.224781 0 .40625-.204622.40625-.458984l-1.419922-5.042969c0-.2543626-.18147-.4589844-.40625-.4589844h-1.46875c.152055.4203969-.211624.7547934-.191407.8222654-.590008.648925-2.0513632 1.103516-3.6621089 1.103516-1.6778599 0-3.1094143-.491194-3.6542969-1.183594.039094-.123371-.3874138-.4192846-.2597656-.7421874zm1.3769531.6347654c.2244454.284713.5004097.624181.5292969.667969.0821689.124548 1.423462.498385 1.6425781.591797.219116.093413 2.4112398.402785 2.9316406.341797.5204008-.060991 2.5742185-.777344 2.5742185-.777344s.172987-.184257.222657-.236328c.008191.026149.107421.351562.107421.351562.004488.006419.005423.013079.009766.019532.119051.17689.191406.362502.191406.55664 0 1.073186-1.95229 1.9375-4.363281 1.9375-2.4109905 0-4.3632812-.864314-4.3632812-1.9375-.0000001-.213605.0796085-.415174.2226562-.607422 0 0 .2391295-.73938.2949219-.908203z" transform="matrix(.99999999149 0 0 .99999999149 .00000056199 .00000007334)"/>
    <path d="m8.0292969.49609375c-.2106011.00431102-.4169755.05399229-.6367188.14453125-.1136426.04682298-.2019666.15400665-.234375.26171875-.9801754 3.25772775-3.2988281 9.38867225-3.2988281 9.38867225-.1430477.169109-.2226562.343354-.2226562.53125 0 .94402 1.9522907 1.705078 4.3632812 1.705078 2.410991 0 4.363281-.761058 4.363281-1.705078 0-.170773-.072355-.330728-.191406-.486328-.004343-.005675-.005278-.011931-.009766-.017579 0 0-2.2631549-6.3401115-3.2050778-9.47070275-.0316883-.10532824-.1529848-.18381314-.265625-.2265625-.2364635-.08974338-.4515082-.12931102-.6621093-.125zm-.8730469 1.83203125c.3521014.0619283.4494446.0976563.84375.0976562.4076553 0 .6102008-.0315499.9726562-.0976562.2421942.9223659.6683091 1.9193027.9472657 2.9277344-.5578264.196728-1.1913233.3144531-1.9199219.3144531-.7201965 0-1.2571685-.1125252-1.8105469-.3046875.2887346-1.0038144.7173566-2.0050858.9667969-2.9375zm-1.8652344 5.3535156c.7087803.3526304 1.5896898.5722656 2.7109375.5722656 1.100292 0 2.0465919-.2131138 2.7539059-.5527343.381371 1.2983167.864028 2.5146911.908203 2.6621091-.590009.648925-2.0513632 1.103516-3.6621089 1.103516-1.6778599 0-3.1094143-.491194-3.6542969-1.183594.0955065-.3013968.5268886-1.2469144.9433594-2.6015624z" transform="matrix(.99999999149 0 0 .99999999149 .00000021785 .00000007334)"/>
  </g>
</svg>

<svg xmlns="http://www.w3.org/2000/svg" width="16" height="16" version="1.1">
 <g transform="translate(0,-32)">
  <g transform="matrix(0.34414011,0,0,0.34414011,-0.35768841,32.158118)">
   <path fill="#444" d="M 2.7773438 9.5410156 C 2.552563 9.5410156 2.3710938 9.7456374 2.3710938 10 L 0.84960938 15.042969 C 0.84960937 15.297331 1.0310786 15.501953 1.2558594 15.501953 L 14.744141 15.501953 C 14.968922 15.501953 15.150391 15.297331 15.150391 15.042969 L 13.730469 10 C 13.730469 9.7456374 13.548999 9.5410156 13.324219 9.5410156 L 11.855469 9.5410156 C 12.007524 9.9614125 11.643845 10.295809 11.664062 10.363281 C 11.074054 11.012206 9.6126988 11.466797 8.0019531 11.466797 C 6.3240932 11.466797 4.8925388 10.975603 4.3476562 10.283203 C 4.3867502 10.159832 3.9602424 9.8639184 4.0878906 9.5410156 L 2.7773438 9.5410156 z M 4.1542969 10.175781 C 4.3787423 10.460494 4.6547066 10.799962 4.6835938 10.84375 C 4.7657627 10.968298 6.1070558 11.342135 6.3261719 11.435547 C 6.5452879 11.52896 8.7374117 11.838332 9.2578125 11.777344 C 9.7782133 11.716353 11.832031 11 11.832031 11 C 11.832031 11 12.005018 10.815743 12.054688 10.763672 C 12.062879 10.789821 12.162109 11.115234 12.162109 11.115234 C 12.166597 11.121653 12.167532 11.128313 12.171875 11.134766 C 12.290926 11.311656 12.363281 11.497268 12.363281 11.691406 C 12.363281 12.764592 10.410991 13.628906 8 13.628906 C 5.5890095 13.628906 3.6367188 12.764592 3.6367188 11.691406 C 3.6367187 11.477801 3.7163273 11.276232 3.859375 11.083984 C 3.859375 11.083984 4.0985045 10.344604 4.1542969 10.175781 z" transform="matrix(2.9057932,0,0,2.9057932,1.0393686,-0.45945821)"/>
   <g fill="#444" transform="translate(-0.1205365,0)">
    <path fill="#444" d="M 8.0292969 0.49609375 C 7.8186958 0.50040477 7.6123214 0.55008604 7.3925781 0.640625 C 7.2789355 0.68744798 7.1906115 0.79463165 7.1582031 0.90234375 C 6.1780277 4.1600715 3.859375 10.291016 3.859375 10.291016 C 3.7163273 10.460125 3.6367188 10.63437 3.6367188 10.822266 C 3.6367188 11.766286 5.5890095 12.527344 8 12.527344 C 10.410991 12.527344 12.363281 11.766286 12.363281 10.822266 C 12.363281 10.651493 12.290926 10.491538 12.171875 10.335938 C 12.167532 10.330263 12.166597 10.324007 12.162109 10.318359 C 12.162109 10.318359 9.8989541 3.9782475 8.9570312 0.84765625 C 8.9253429 0.74232801 8.8040464 0.66384311 8.6914062 0.62109375 C 8.4549427 0.53135037 8.239898 0.49178273 8.0292969 0.49609375 z M 7.15625 2.328125 C 7.5083514 2.3900533 7.6056946 2.4257813 8 2.4257812 C 8.4076553 2.4257812 8.6102008 2.3942313 8.9726562 2.328125 C 9.2148504 3.2504909 9.6409653 4.2474277 9.9199219 5.2558594 C 9.3620955 5.4525874 8.7285986 5.5703125 8 5.5703125 C 7.2798035 5.5703125 6.7428315 5.4577873 6.1894531 5.265625 C 6.4781877 4.2618106 6.9068097 3.2605392 7.15625 2.328125 z M 5.2910156 7.6816406 C 5.9997959 8.034271 6.8807054 8.2539062 8.0019531 8.2539062 C 9.1022451 8.2539062 10.048545 8.0407924 10.755859 7.7011719 C 11.13723 8.9994886 11.619887 10.215863 11.664062 10.363281 C 11.074053 11.012206 9.6126988 11.466797 8.0019531 11.466797 C 6.3240932 11.466797 4.8925388 10.975603 4.3476562 10.283203 C 4.4431627 9.9818062 4.8745448 9.0362886 5.2910156 7.6816406 z" transform="matrix(2.9057932,0,0,2.9057932,1.1599051,-0.45945821)"/>
   </g>
  </g>
 </g>
</svg>
